X:1
T:Hitchcock, 86.86.86
T:Hitchcock, 86.86.86
T:From Rudiments of Music, by Andrew Law, 1791
T:Public Domain Courtesy of the Cyber Hymnal™
C:From Rudiments of Music, by Andrew Law, 1791
Z:Public Domain
Z:Courtesy of the Cyber Hymnal™
%%score ( 1 2 ) ( 3 4 )
L:1/8
Q:1/4=115
M:4/4
K:C
V:1 treble 
V:2 treble 
V:3 bass 
V:4 bass 
V:1
 [EA]4 | [Ac]2 A2 E2 G2 | [EA]2 [EB]2 [Ec]2 [Ad]2 | [Ae]2 (ed) [Gc]2 [EB]2 | [EA]6 [Ec]2 | %5
 [Ae]2 [Ae]2 [Ae]2 c2 | [Bd]2 [Ad]2 [Gd]2 [GB]2 | [Ac]2 [Ac]2 (cB) (Ac) | [EB]4 [Ae]4 | %9
 [Ae]2 [Ac]2 A2 [Ac]2 | [Gd]2 [GB]2 G2 A2 | [AB]2 ([Gc][FB]) [EA]2 [E^G]2 | !fermata![EA]4 |] %13
V:2
 x4 | x2 A2 E2 G2 | x8 | x2 A2 x4 | x8 | x6 c2 | x8 | x4 E2 E2 | x8 | x4 A2 x2 | x4 G2 A2 | x8 | %12
 x4 |] %13
V:3
 A,4 | [A,C]2 [CE]2 [B,E]2 [G,D]2 | [E,C]2 [E,B,]2 A,2 (A,B,) | [A,C]2 (CD) E2 (EF) | %4
 [A,,E]6 (ED) | [A,C]2 [A,C]2 [A,C]2 A,2 | [G,B,]2 [G,B,]2 [G,B,]2 (CD) | %7
 [A,E]2 [A,E]2 [A,E]2 [E,D]2 | [E,E]4 [E,C]4 | [A,E]2 [A,E]2 [A,E]2 C2 | %10
 [D,D]2 [D,D]2 [D,D]2 (CD) | [E,E]2 (ED) [A,C]2 [E,B,]2 | !fermata![A,,A,]4 |] %13
V:4
 A,4 | x8 | x4 A,2 A,2 | x2 E,2 (C,D,) E,2 | x6 E,2 | x6 A,2 | x6 G,2 | x8 | x8 | x6 (G,E,) | %10
 x6 E,2 | x2 ^G,2 x4 | x4 |] %13

